X: 1311
T: Broken Down Merry-Go-Round
C:Arthur Herbert & Fred Stryker
B: australian traditional tunes wiki
M:3/4
L:1/8
R: Waltz
Q: 1/4=100
K:D
V:1 
A2|"A7"A2f2e2|:"D"d6|A4A2|A2d2f2|a2g2f2|"A7"e4e2|e4e2|A2c2e2|
a6-|a4a2|g2f2e2|"D"d2f2"A7"e2|"D"d6-|d4"fine"d2||
"G"g6|g2a2b2|"D"a6-|a6|a2g2f2|"A7"g6|g2f2^e2|"D"f4d2|
"G"g6|g2a2b2|"D"a6|"Bm"f4f2|"E"f2e2d2|d2c2d2|"A7"e6|"D.C. al fine"e2f2e2:|
% abcbook-tune_id 6342d53ad3196de610a4bf2e


% abcbook-boost 0
% abcbook-tablature 
% abcbook-transpose 
% abcbook-lastupdated 1665324358559
% abcbook-soundfonts 
% abcbook-repeats 1
% NFF Book 2009

